public/assets/images/icon/wcuIcon1_6.svg

<svg width="80" height="80" viewBox="0 0 80 80" fill="none" xmlns="http://www.w3.org/2000/svg">
<rect opacity="0.2" x="0.5" y="0.5" width="79" height="79" rx="9.5" stroke="#7444FD"/>
<path opacity="0.927" fill-rule="evenodd" clip-rule="evenodd" d="M39.0641 15.0414C40.2329 14.9075 41.342 15.0983 42.3916 15.6139C49.2716 20.0118 56.1693 24.3836 63.0844 28.7294C64.7552 30.104 65.3271 31.8563 64.8002 33.986C64.4823 34.9171 63.9451 35.6978 63.1884 36.3281C62.4575 36.8585 61.6776 37.2922 60.8488 37.6292C60.0533 37.4092 59.8281 36.9234 60.1729 36.1719C60.7958 35.6864 61.4544 35.2528 62.1486 34.8708C63.0618 34.0442 63.391 33.0207 63.1364 31.8001C62.9037 31.0119 62.4358 30.4048 61.7326 29.9785C55.0255 25.7715 48.3358 21.5385 41.6637 17.2794C40.5545 16.6549 39.4454 16.6549 38.3363 17.2794C31.5079 21.6165 24.6797 25.9536 17.8514 30.2908C16.8249 31.2193 16.5302 32.3469 16.9676 33.6737C17.1734 34.1376 17.468 34.5367 17.8514 34.8708C24.8183 39.2773 31.7853 43.6839 38.7522 48.0904C39.5841 48.4373 40.4159 48.4373 41.2478 48.0904C44.2633 46.1821 47.2789 44.2736 50.2944 42.3653C51.5568 42.311 51.8687 42.8315 51.2303 43.9267C48.2147 45.835 45.1992 47.7434 42.1837 49.6517C40.5019 50.3582 38.8728 50.2541 37.2964 49.3394C30.4681 45.0023 23.6399 40.6652 16.8116 36.3281C15.0309 34.7318 14.5629 32.8061 15.4078 30.551C15.7989 29.8476 16.3015 29.2404 16.9156 28.7294C23.8307 24.3836 30.7284 20.0118 37.6084 15.6139C38.0928 15.3893 38.578 15.1985 39.0641 15.0414Z" fill="#7444FD"/>
<path opacity="0.927" fill-rule="evenodd" clip-rule="evenodd" d="M39.1682 29.9262C40.3551 29.7856 41.4643 30.0112 42.4957 30.6028C49.4108 34.9486 56.3085 39.3205 63.1885 43.7183C64.9692 45.3145 65.4371 47.2402 64.5923 49.4954C64.2011 50.1988 63.6985 50.806 63.0845 51.317C56.1176 55.7234 49.1507 60.13 42.1837 64.5365C40.6428 65.1872 39.1177 65.1524 37.6084 64.4324C30.7285 60.0346 23.8308 55.6628 16.9157 51.317C15.2448 49.9423 14.6729 48.1901 15.1999 46.0604C15.6755 44.7514 16.5247 43.7626 17.7475 43.0938C18.6984 42.867 19.1317 43.2313 19.0473 44.1867C18.9657 44.3726 18.8444 44.5288 18.6834 44.6551C16.7685 45.7214 16.3005 47.2308 17.2796 49.1831C17.5049 49.4087 17.7302 49.6341 17.9555 49.8597C24.7491 54.1621 31.5428 58.4646 38.3363 62.767C39.4455 63.3915 40.5546 63.3915 41.6638 62.767C48.3358 58.5079 55.0255 54.2749 61.7327 50.0679C63.2407 49.0081 63.6046 47.6377 62.8245 45.9563C62.6381 45.6653 62.4128 45.4051 62.1487 45.1756C55.1817 40.7691 48.2148 36.3625 41.2479 31.956C40.416 31.6091 39.5841 31.6091 38.7523 31.956C36.2737 33.4914 33.8128 35.0527 31.3694 36.6401C30.5254 37.1464 29.9708 36.9382 29.7057 36.0156C29.7363 35.7113 29.8751 35.4684 30.1216 35.2869C32.5308 33.7863 34.9224 32.2596 37.2965 30.7069C37.8965 30.3535 38.5204 30.0933 39.1682 29.9262Z" fill="#7444FD"/>
</svg>

<?xml version="1.0" encoding="UTF-8"?>
<svg id="Capa_1" xmlns="http://www.w3.org/2000/svg" version="1.1" viewBox="0 0 80 80">
  <!-- Generator: Adobe Illustrator 29.8.1, SVG Export Plug-In . SVG Version: 2.1.1 Build 2)  -->
  <defs>
    <style>
      .st0 {
        fill: none;
        opacity: .74;
        stroke: #129689;
      }

      .st0, .st1 {
        isolation: isolate;
      }

      .st1 {
        fill: #129689;
        fill-rule: evenodd;
        opacity: .93;
      }
    </style>
  </defs>
  <rect class="st0" x=".5" y=".5" width="79" height="79" rx="9.5" ry="9.5"/>
  <path class="st1" d="M39.06,15.04c1.17-.13,2.28.06,3.33.57,6.88,4.4,13.78,8.77,20.69,13.12,1.67,1.37,2.24,3.13,1.72,5.26-.32.93-.86,1.71-1.61,2.34-.73.53-1.51.96-2.34,1.3-.8-.22-1.02-.71-.68-1.46.62-.49,1.28-.92,1.98-1.3.91-.83,1.24-1.85.99-3.07-.23-.79-.7-1.4-1.4-1.82-6.71-4.21-13.4-8.44-20.07-12.7-1.11-.62-2.22-.62-3.33,0-6.83,4.34-13.66,8.67-20.48,13.01-1.03.93-1.32,2.06-.88,3.38.21.46.5.86.88,1.2,6.97,4.41,13.93,8.81,20.9,13.22.83.35,1.66.35,2.5,0,3.02-1.91,6.03-3.82,9.05-5.73,1.26-.05,1.57.47.94,1.56-3.02,1.91-6.03,3.82-9.05,5.72-1.68.71-3.31.6-4.89-.31-6.83-4.34-13.66-8.67-20.48-13.01-1.78-1.6-2.25-3.52-1.4-5.78.39-.7.89-1.31,1.51-1.82,6.92-4.35,13.81-8.72,20.69-13.12.48-.22.97-.42,1.46-.57Z"/>
  <path class="st1" d="M39.17,29.93c1.19-.14,2.3.08,3.33.68,6.92,4.35,13.81,8.72,20.69,13.12,1.78,1.6,2.25,3.52,1.4,5.78-.39.7-.89,1.31-1.51,1.82-6.97,4.41-13.93,8.81-20.9,13.22-1.54.65-3.07.62-4.58-.1-6.88-4.4-13.78-8.77-20.69-13.12-1.67-1.37-2.24-3.13-1.72-5.26.48-1.31,1.32-2.3,2.55-2.97.95-.23,1.38.14,1.3,1.09-.08.19-.2.34-.36.47-1.91,1.07-2.38,2.58-1.4,4.53.23.23.45.45.68.68,6.79,4.3,13.59,8.6,20.38,12.91,1.11.62,2.22.62,3.33,0,6.67-4.26,13.36-8.49,20.07-12.7,1.51-1.06,1.87-2.43,1.09-4.11-.19-.29-.41-.55-.68-.78-6.97-4.41-13.93-8.81-20.9-13.22-.83-.35-1.66-.35-2.5,0-2.48,1.54-4.94,3.1-7.38,4.68-.84.51-1.4.3-1.66-.62.03-.3.17-.55.42-.73,2.41-1.5,4.8-3.03,7.17-4.58.6-.35,1.22-.61,1.87-.78Z"/>
</svg>
